assets/images/ico_logout_white.svg

<svg width="15" height="15" viewBox="0 0 15 15" fill="none" xmlns="http://www.w3.org/2000/svg">
<path fill-rule="evenodd" clip-rule="evenodd" d="M14.7639 8.08557L10.9574 12.0611C10.3495 12.7027 9.43802 11.7402 10.0459 11.0989L12.5867 8.41928C12.7114 8.28778 12.6687 8.18044 12.4905 8.18044H5.48057C5.12308 8.18044 4.8344 7.87579 4.8344 7.49999C4.8344 7.12156 5.1237 6.81953 5.48057 6.81953H12.4905C12.6678 6.81953 12.7117 6.71261 12.5867 6.5807L10.0459 3.90106C9.43802 3.25939 10.3495 2.29723 10.9574 2.9389L14.7594 6.88832C15.0788 7.22011 15.0801 7.75536 14.7639 8.08557ZM1.61051 13.6364H3.86752C4.22351 13.6364 4.5121 13.9416 4.5121 14.3182C4.5121 14.6947 4.22351 15 3.86752 15H0.965396C0.430258 15 0 14.5395 0 13.9743L0 1.02572C0 0.461393 0.433404 0 0.965396 0H3.86752C4.22351 0 4.5121 0.305261 4.5121 0.681818C4.5121 1.05838 4.22351 1.36364 3.86752 1.36364H1.61051C1.43518 1.36364 1.28917 1.51633 1.28917 1.70469L1.28917 13.2953C1.28917 13.4812 1.43304 13.6364 1.61051 13.6364Z" fill="#ffffff"/>
</svg>

<svg width="15" height="15" fill="none" xmlns="http://www.w3.org/2000/svg"><path fill-rule="evenodd" clip-rule="evenodd" d="M14.764 8.086l-3.807 3.975c-.607.642-1.519-.32-.911-.962l2.54-2.68c.125-.131.083-.239-.095-.239H5.48c-.358 0-.647-.304-.647-.68 0-.378.29-.68.647-.68h7.01c.177 0 .22-.107.096-.24l-2.541-2.679c-.608-.642.304-1.604.911-.962l3.802 3.95a.87.87 0 0 1 .005 1.197zM1.61 13.636h2.257c.356 0 .644.306.644.682 0 .377-.288.682-.644.682H.965C.43 15 0 14.54 0 13.974V1.026C0 .46.433 0 .965 0h2.903c.356 0 .644.305.644.682 0 .376-.288.682-.644.682H1.61a.332.332 0 0 0-.322.34v11.591c0 .186.144.341.322.341z" fill="#fff"/></svg>
